X: 14
T: Reunion Jig
C: Russ Barenberg 1989
S: printed MS of unknown origin
Z: 2011 John Chambers <jc:trillian.mit.edu>
M: 6/8
L: 1/8
R: jig
K: A
AB !segno!|\
"A"cdc "E"BAG | "A"AED CB,A, |\
"D"DEF "A"EAc | "Bm"dec "E7"BAB ||\
"A"cdc "E"BAG | "A"AED CB,A, |
"D"DEF "E"EAG | "A"A3-A :|\
|: cA |\
"E"BEE "(A)"cEE | "E"edc Bcd |\
"A"cAA ABc | "E"BEE E2c ||
"E"BEE "(A)"cEE | "E"edc Bcd |\
[1 "A"cAA eAc | "E"B3-B :|\
[2 "A"cAA "F#m"ABc | "Bm"dFc "E7"Bc"d.S."d :|

%%sep 1 1 500

